static/assets/img/icons/theme/electric/fridge.svg

<svg height="24" viewBox="0 0 24 24" width="24" xmlns="http://www.w3.org/2000/svg"><g fill="none" fill-rule="evenodd"><path d="m0 0h24v24h-24z" opacity="0"/><path d="m7 10v6c0 .5522847.44771525 1 1 1s1-.4477153 1-1v-6h10v12c0 .5522847-.4477153 1-1 1h-12c-.55228475 0-1-.4477153-1-1v-12zm0-2h-2v-6c0-.55228475.44771525-1 1-1h12c.5522847 0 1 .44771525 1 1v6h-10v-3c0-.55228475-.44771525-1-1-1s-1 .44771525-1 1z" fill="#000"/></g></svg>

<svg width="24px" height="24px" viewBox="0 0 24 24" version="1.1" xmlns="http://www.w3.org/2000/svg" xmlns:xlink="http://www.w3.org/1999/xlink">
    <title>Icon For Fridge</title>
    <g stroke="none" stroke-width="1" fill="none" fill-rule="evenodd">
        <rect opacity="0" x="0" y="0" width="24" height="24"></rect>
        <path d="M7,10 L7,16 C7,16.5522847 7.44771525,17 8,17 C8.55228475,17 9,16.5522847 9,16 L9,10 L19,10 L19,22 C19,22.5522847 18.5522847,23 18,23 L6,23 C5.44771525,23 5,22.5522847 5,22 L5,10 L7,10 Z M7,8 L5,8 L5,2 C5,1.44771525 5.44771525,1 6,1 L18,1 C18.5522847,1 19,1.44771525 19,2 L19,8 L9,8 L9,5 C9,4.44771525 8.55228475,4 8,4 C7.44771525,4 7,4.44771525 7,5 L7,8 Z" fill="#000000"></path>
    </g>
</svg>
